icons/desktop/16/svg/site-restrictions-16.svg

<svg width="16" height="16" viewBox="0 0 16 16" fill="none" xmlns="http://www.w3.org/2000/svg">
<path d="M11.543 7.23923C12.023 6.91923 12.6384 6.92209 13.1074 7.24509C13.4203 7.46 13.7482 7.66081 14.0791 7.84274C14.4331 8.03674 14.7981 8.21225 15.1611 8.36325C15.751 8.60927 16.0935 9.24791 15.9756 9.88278L15.7314 11.1992C15.6184 11.8122 15.413 12.3461 15.123 12.7851C14.5781 13.6131 13.8314 14.3344 13.0215 14.8144C12.8095 14.9404 12.571 15.0019 12.332 15.0019L12.334 15C12.091 15 11.8479 14.9346 11.6299 14.8056C10.825 14.3266 10.083 13.61 9.54004 12.7861C9.25007 12.3461 9.04467 11.8103 8.93066 11.1933L8.68359 9.85642C8.56659 9.21942 8.90814 8.57893 9.49414 8.33493C9.78809 8.21295 10.0813 8.07661 10.3652 7.93063C10.7691 7.7237 11.1651 7.49113 11.543 7.23923Z" fill="black"/>
<path d="M2.41504 1.26267C5.43488 0.914689 8.5367 0.913786 11.5605 1.25974C12.9505 1.41974 14 2.59606 14 3.99606V6.32712C13.9391 6.28721 13.8743 6.25374 13.8154 6.21286C13.4234 5.94387 12.971 5.79367 12.5 5.76267V3.99606C12.5 3.35806 12.0226 2.82297 11.3896 2.74997C9.93775 2.58399 8.46189 2.49997 7 2.49997C5.529 2.49997 4.04394 2.5849 2.58594 2.7529C1.96711 2.82391 1.50022 3.35547 1.5 3.98825V9.00778C1.50004 9.64172 1.96892 10.174 2.58984 10.2461C3.88678 10.3961 5.20483 10.48 6.50977 10.497C6.84777 10.501 7.1893 10.4815 7.5293 10.4765L7.70312 11.4199C7.73913 11.6168 7.80642 11.7896 7.8584 11.9746C7.57144 11.9806 7.28305 12 6.99609 12C6.82817 12 6.65913 11.999 6.49121 11.997C5.13621 11.98 3.76597 11.8913 2.41797 11.7353C1.04003 11.5753 0.00102956 10.4027 0.000976562 9.00681V3.98825C0.00119853 2.59345 1.03919 1.42165 2.41504 1.26267Z" fill="black"/>
</svg>

<!-- This Source Code Form is subject to the terms of the Mozilla Public
   - License, v. 2.0. If a copy of the MPL was not distributed with this
   - file, You can obtain one at http://mozilla.org/MPL/2.0/. -->
<svg xmlns="http://www.w3.org/2000/svg" width="16" height="16" fill="context-fill" fill-opacity="context-fill-opacity" viewBox="0 0 16 16">
    <path d="M11.543 7.24a1.39 1.39 0 0 1 1.564.005 11.6 11.6 0 0 0 2.054 1.118c.59.246.932.885.815 1.52l-.245 1.316c-.113.613-.318 1.147-.608 1.586a6.6 6.6 0 0 1-2.101 2.03c-.213.125-.451.187-.69.187l.002-.002c-.243 0-.486-.065-.704-.194a6.6 6.6 0 0 1-2.09-2.02c-.29-.44-.495-.976-.61-1.593l-.246-1.337a1.38 1.38 0 0 1 .81-1.521q.443-.184.871-.404c.404-.207.8-.44 1.178-.692" />
    <path d="M2.415 1.263a40.3 40.3 0 0 1 9.146-.003A2.754 2.754 0 0 1 14 3.996v2.331c-.06-.04-.126-.073-.185-.114a2.6 2.6 0 0 0-1.315-.45V3.996c0-.638-.477-1.173-1.11-1.246a38.8 38.8 0 0 0-8.804.003A1.236 1.236 0 0 0 1.5 3.988v5.02a1.24 1.24 0 0 0 1.09 1.238c1.297.15 2.615.234 3.92.251.338.004.68-.015 1.02-.02l.173.943c.036.197.103.37.155.555-.287.006-.575.025-.862.025q-.252 0-.505-.003a40 40 0 0 1-4.073-.262A2.74 2.74 0 0 1 .001 9.007V3.988a2.736 2.736 0 0 1 2.414-2.725" />
</svg>
